X: 40538
T: Tommy Mulhaire's
R: jig
M: 6/8
K: Gmajor
F|EDE G2A|Bde dBd|edB GAB|~A3 AGF|
EDE G2A|BAB dBd|edB GAB|AGF G2:|
B|ded def|gfe fdB|~A3 ABd|egf e2f|
g2e fed|edB ~g3|edB GAB|AGF G2B|
ded def|g2a fdB|~A3 ABd|egf e2f|
gfe fed|edB g2z|edB GAB|AGF G2||

